ligands/bidentate/dmpe-1,2-bis(dimethylphosphino)ethane.svg

<svg height="256" viewBox="0 0 256 256" width="256" xmlns="http://www.w3.org/2000/svg"><path d="m0 0h256v256h-256z" fill="#fff"/><ellipse cx="143.6" cy="99.8" fill="#ff7f7f" fill-rule="evenodd" rx="14.1" ry="14.1" stroke="#ff7f7f"/><path d="m59.9 100.9 26.8 2.8" fill="none" stroke="#000" stroke-width="2"/><path d="m96.7 94.7v-21.4" fill="none" stroke="#000" stroke-width="2"/><path d="m93.4 120.5-6.4 30.4" fill="none" stroke="#000" stroke-width="2"/><path d="m87 150.9 40.8 23.5" fill="none" stroke="#000" stroke-width="2"/><path d="m127.8 174.4 25-22.5" fill="none" stroke="#000" stroke-width="2"/><path d="m172.9 137.1 20.7-12" fill="none" stroke="#000" stroke-width="2"/><path d="m172.9 156.7 10.3 14.3" fill="none" stroke="#000" stroke-width="2"/><path d="m158.3 132.8-7.7-17.3" fill="none" stroke="#000" stroke-width="2"/><path d="m106.8 103.7 26.8-2.8" fill="none" stroke="#000" stroke-width="2"/><path d="m87.3 149.3-.3 1.6 2 1.1" fill="none" stroke="#000" stroke-miterlimit="10" stroke-width="2"/><path d="m125.7 173.3 2.1 1.1 1.2-1.1" fill="none" stroke="#000" stroke-miterlimit="10" stroke-width="2"/><g font-family="sans-serif"><text font-size="28" x="12.8" y="114">H</text><text font-size="18" x="32.3" y="125.3">3</text><text font-size="28" x="41.4" y="114">C</text><text font-size="28" x="88.3" y="118.9">P</text><text font-size="28" x="88.2" y="71.8">C</text><text font-size="28" x="107.8" y="71.8">H</text><text font-size="18" x="127.3" y="83.1">3</text><text font-size="28" x="154.3" y="157">P</text><text font-size="28" x="195.1" y="133.4">C</text><text font-size="28" x="214.7" y="133.4">H</text><text font-size="18" x="234.2" y="144.8">3</text><text font-size="28" x="182" y="195.2">C</text><text font-size="28" x="201.6" y="195.2">H</text><text font-size="18" x="221.1" y="206.5">3</text></g><text x="135.1" y="114"/></svg>

<?xml version='1.0' encoding='iso-8859-1'?>
<svg version='1.1' baseProfile='full'
              xmlns='http://www.w3.org/2000/svg'
                      xmlns:rdkit='http://www.rdkit.org/xml'
                      xmlns:xlink='http://www.w3.org/1999/xlink'
                  xml:space='preserve'
width='256px' height='256px' viewBox='0 0 256 256'>
<!-- END OF HEADER -->
<rect style='opacity:1.0;fill:#FFFFFF;stroke:none' width='256.0' height='256.0' x='0.0' y='0.0'> </rect>
<ellipse cx='143.6' cy='99.8' rx='14.1' ry='14.1' class='atom-8'  style='fill:#FF7F7F;fill-rule:evenodd;stroke:#FF7F7F;stroke-width:1.0px;stroke-linecap:butt;stroke-linejoin:miter;stroke-opacity:1' />
<path class='bond-0 atom-0 atom-1' d='M 59.9,100.9 L 86.7,103.7' style='fill:none;fill-rule:evenodd;stroke:#000000;stroke-width:2.0px;stroke-linecap:butt;stroke-linejoin:miter;stroke-opacity:1' />
<path class='bond-1 atom-1 atom-2' d='M 96.7,94.7 L 96.7,73.3' style='fill:none;fill-rule:evenodd;stroke:#000000;stroke-width:2.0px;stroke-linecap:butt;stroke-linejoin:miter;stroke-opacity:1' />
<path class='bond-2 atom-1 atom-3' d='M 93.4,120.5 L 87.0,150.9' style='fill:none;fill-rule:evenodd;stroke:#000000;stroke-width:2.0px;stroke-linecap:butt;stroke-linejoin:miter;stroke-opacity:1' />
<path class='bond-3 atom-3 atom-4' d='M 87.0,150.9 L 127.8,174.4' style='fill:none;fill-rule:evenodd;stroke:#000000;stroke-width:2.0px;stroke-linecap:butt;stroke-linejoin:miter;stroke-opacity:1' />
<path class='bond-4 atom-4 atom-5' d='M 127.8,174.4 L 152.8,151.9' style='fill:none;fill-rule:evenodd;stroke:#000000;stroke-width:2.0px;stroke-linecap:butt;stroke-linejoin:miter;stroke-opacity:1' />
<path class='bond-5 atom-5 atom-6' d='M 172.9,137.1 L 193.6,125.1' style='fill:none;fill-rule:evenodd;stroke:#000000;stroke-width:2.0px;stroke-linecap:butt;stroke-linejoin:miter;stroke-opacity:1' />
<path class='bond-6 atom-5 atom-7' d='M 172.9,156.7 L 183.2,171.0' style='fill:none;fill-rule:evenodd;stroke:#000000;stroke-width:2.0px;stroke-linecap:butt;stroke-linejoin:miter;stroke-opacity:1' />
<path class='bond-7 atom-5 atom-8' d='M 158.3,132.8 L 150.6,115.5' style='fill:none;fill-rule:evenodd;stroke:#000000;stroke-width:2.0px;stroke-linecap:butt;stroke-linejoin:miter;stroke-opacity:1' />
<path class='bond-8 atom-1 atom-8' d='M 106.8,103.7 L 133.6,100.9' style='fill:none;fill-rule:evenodd;stroke:#000000;stroke-width:2.0px;stroke-linecap:butt;stroke-linejoin:miter;stroke-opacity:1' />
<path d='M 87.3,149.3 L 87.0,150.9 L 89.0,152.0' style='fill:none;stroke:#000000;stroke-width:2.0px;stroke-linecap:butt;stroke-linejoin:miter;stroke-miterlimit:10;stroke-opacity:1;' />
<path d='M 125.7,173.3 L 127.8,174.4 L 129.0,173.3' style='fill:none;stroke:#000000;stroke-width:2.0px;stroke-linecap:butt;stroke-linejoin:miter;stroke-miterlimit:10;stroke-opacity:1;' />
<text x='12.8' y='114.0' class='atom-0' style='font-size:28px;font-style:normal;font-weight:normal;fill-opacity:1;stroke:none;font-family:sans-serif;text-anchor:start;fill:#000000' >H</text>
<text x='32.3' y='125.3' class='atom-0' style='font-size:18px;font-style:normal;font-weight:normal;fill-opacity:1;stroke:none;font-family:sans-serif;text-anchor:start;fill:#000000' >3</text>
<text x='41.4' y='114.0' class='atom-0' style='font-size:28px;font-style:normal;font-weight:normal;fill-opacity:1;stroke:none;font-family:sans-serif;text-anchor:start;fill:#000000' >C</text>
<text x='88.3' y='118.9' class='atom-1' style='font-size:28px;font-style:normal;font-weight:normal;fill-opacity:1;stroke:none;font-family:sans-serif;text-anchor:start;fill:#000000' >P</text>
<text x='88.2' y='71.8' class='atom-2' style='font-size:28px;font-style:normal;font-weight:normal;fill-opacity:1;stroke:none;font-family:sans-serif;text-anchor:start;fill:#000000' >C</text>
<text x='107.8' y='71.8' class='atom-2' style='font-size:28px;font-style:normal;font-weight:normal;fill-opacity:1;stroke:none;font-family:sans-serif;text-anchor:start;fill:#000000' >H</text>
<text x='127.3' y='83.1' class='atom-2' style='font-size:18px;font-style:normal;font-weight:normal;fill-opacity:1;stroke:none;font-family:sans-serif;text-anchor:start;fill:#000000' >3</text>
<text x='154.3' y='157.0' class='atom-5' style='font-size:28px;font-style:normal;font-weight:normal;fill-opacity:1;stroke:none;font-family:sans-serif;text-anchor:start;fill:#000000' >P</text>
<text x='195.1' y='133.4' class='atom-6' style='font-size:28px;font-style:normal;font-weight:normal;fill-opacity:1;stroke:none;font-family:sans-serif;text-anchor:start;fill:#000000' >C</text>
<text x='214.7' y='133.4' class='atom-6' style='font-size:28px;font-style:normal;font-weight:normal;fill-opacity:1;stroke:none;font-family:sans-serif;text-anchor:start;fill:#000000' >H</text>
<text x='234.2' y='144.8' class='atom-6' style='font-size:18px;font-style:normal;font-weight:normal;fill-opacity:1;stroke:none;font-family:sans-serif;text-anchor:start;fill:#000000' >3</text>
<text x='182.0' y='195.2' class='atom-7' style='font-size:28px;font-style:normal;font-weight:normal;fill-opacity:1;stroke:none;font-family:sans-serif;text-anchor:start;fill:#000000' >C</text>
<text x='201.6' y='195.2' class='atom-7' style='font-size:28px;font-style:normal;font-weight:normal;fill-opacity:1;stroke:none;font-family:sans-serif;text-anchor:start;fill:#000000' >H</text>
<text x='221.1' y='206.5' class='atom-7' style='font-size:18px;font-style:normal;font-weight:normal;fill-opacity:1;stroke:none;font-family:sans-serif;text-anchor:start;fill:#000000' >3</text>
<text x='135.1' y='114.0' class='atom-8' style='font-size:28px;font-style:normal;font-weight:normal;fill-opacity:1;stroke:none;font-family:sans-serif;text-anchor:start;fill:#000000' ></text>
</svg>
